X:1
T:[ID 6v-14a (= 6-89a)]
T:[ID 6v-14a (= 6-89a)]
T:Bezeichnung standardisiert: Bergamasca; Kraut und R\"uben; Riefe Gersten Tantz In dieser Quelle auch als: Ribge Gerste 18. In dieser Quelle auch als: Riefe Gersten Tantz In anderer Quelle: Pargamasca - Tabulatura Vietoris, 17. Jhdt. (Anm. S. Wascher);  Nr. 5 - H. N. Philipp, 1784 (Anm. S. Wascher) \"Ahnlich in anderer Quelle: Kraut und R\"uben (Anm. S. Wascher);
T:Urheber unbekannt Erstbeleg: 17. Jhdt. (Wissenschaftliche Sch\"atzung) Datum in der hier transkribierten schriftlichen Quelle: 1792
C:Urheber unbekannt
C:Erstbeleg: 17. Jhdt. (Wissenschaftliche Sch\"atzung)
C:Datum in der hier transkribierten schriftlichen Quelle: 1792
L:1/8
M:2/4
K:D
V:1 treble 
V:1
 a2 a2 | b2 b2 | abag | fe d2 | fgaf | bagf | ed c/d/e/c/ | d2 d2 :: f2 f2 | g2 g2 | efga | fe d2 | %12
 fgaf | bagf | ed c/d/e/c/ | d2 d2 :| %16

